X:451
T:Toy Heart
C:Bill Monroe
N:Transcribed by John Baldry from "Bluegrass Ramble" Transcribed by Mike Stangeland
R:bluegrass
L:1/8
Q:1/4=209
M:4/4
K:C
z2 G,2 A,2 B,2 | "C"CB, CD ED EF | "G"G^F GA BA Bd | "C"c2 cG GE EC | "C7"C[E_B,] [EB,][EB,] z[EB,] [EB,][EB,] | 
"F"A,[FA,] [FA,][FA,] z[FA,] [FA,][FA,] | [^D2A,2] [D2A,2] [DA,][DA,] [DA,][DA,] | 
"C"G,A, A,C CE EG | [c2G2] [cG][cG] [cG][cG] [cG][cG] | "F"[cA][cA] [cA][cA] z[cA] [cA][cA] | 
Ac c^d dc Ad | "C"^dc Ad cA dc | A^d cA dc A2 | z2 g2 g2 (3ga_b | "G"b2 b2 ag bg | 
"C"c'2 c'g ag ^de | c2 d2 ^d/=d/c AG | c8 | 


